src/assets/Devices/Xbox Gyro.svg

<svg width="869" height="614" viewBox="0 0 869 614" fill="none" xmlns="http://www.w3.org/2000/svg">
<path d="M361.652 24.5799H341.942C342.17 22.9826 343.544 21.7546 345.205 21.7546H358.389C360.05 21.7546 361.424 22.9826 361.652 24.5799Z" stroke="white" stroke-width="0.941764"/>
<path d="M314.349 40.588C275.043 42.3128 233.163 44.8598 186.269 48.233C165.876 49.6998 150.083 55.2096 137.074 64.9662C140.97 56.8951 145.69 50.6151 152.792 44.6112C178.151 23.1723 220.692 8.88044 254.235 4.58648C255.246 4.457 256.242 4.32851 257.221 4.20209L257.223 4.20185C277.62 1.56962 291.039 -0.162105 294.623 8.82376C294.791 9.24326 294.953 9.65143 295.111 10.0486L295.174 10.2077C299.396 20.8218 304.677 24.024 314.349 24.6884V40.588Z" stroke="white" stroke-width="2.82529"/>
<path d="M549.79 40.5316C468.287 36.9969 397.732 36.9766 316.232 40.5058V24.6884H549.79V40.5316Z" stroke="white" stroke-width="2.82529"/>
<path d="M729.897 67.0047C715.841 55.8465 699.339 49.6325 679.753 48.233C632.858 44.882 590.979 42.341 551.673 40.6138V24.6884C561.344 24.024 566.625 20.8218 570.848 10.2077L570.871 10.1485C571.042 9.72 571.217 9.27853 571.399 8.82376C574.983 -0.162105 588.402 1.56962 608.799 4.20185L608.801 4.20209L608.809 4.20317C609.786 4.32924 610.779 4.45737 611.787 4.58648C645.33 8.88044 687.871 23.1723 713.23 44.6112C720.918 51.1112 725.816 57.935 729.897 67.0047Z" stroke="white" stroke-width="2.82529"/>
<path d="M187.93 47.699C142.725 50.9506 120.123 74.0684 100.345 119.273C80.5684 164.478 3.34375 344.355 3.34375 463.017C3.34375 581.679 69.2673 606.165 76.8014 608.049C77.7374 608.283 78.717 608.59 79.7384 608.909C86.9385 611.163 96.2159 614.068 106.938 596.748C119.181 576.971 141.783 548.718 172.861 511.989C203.94 475.26 228.425 442.298 274.572 441.357C302.572 440.785 382.704 440.9 419.604 441.126V441.357C423.953 441.315 429.038 441.272 434.672 441.229C440.306 441.272 445.39 441.315 449.74 441.357V441.126C486.64 440.9 566.772 440.785 594.772 441.357C640.918 442.298 665.404 475.26 696.482 511.989C727.561 548.718 750.163 576.971 762.406 596.748C773.128 614.068 782.405 611.163 789.605 608.909C790.627 608.59 791.606 608.283 792.542 608.049C800.076 606.165 866 581.679 866 463.017C866 344.355 788.775 164.478 768.998 119.273C749.221 74.0684 721.91 50.5928 681.414 47.699C488.681 33.9268 380.655 33.8361 187.93 47.699Z" stroke="white" stroke-width="6"/>
<path d="M83.1875 609.397L83.3017 608.94L82.9047 609.774L83.1875 609.397ZM106.903 596.221L106.503 595.973L106.903 596.221ZM172.827 511.462L172.467 511.158L172.827 511.462ZM178.897 504.254L179.257 504.557L178.897 504.254ZM274.537 440.83L274.527 440.359V440.359L274.537 440.83ZM419.569 440.599H420.04V440.131L419.572 440.128L419.569 440.599ZM419.569 440.83H419.098V441.305L419.573 441.301L419.569 440.83ZM434.637 440.702L434.641 440.231L434.633 440.231L434.637 440.702ZM449.705 440.83L449.701 441.301L450.176 441.305V440.83H449.705ZM449.705 440.599L449.702 440.128L449.234 440.131V440.599H449.705ZM594.737 440.83L594.747 440.359L594.747 440.359L594.737 440.83ZM690.377 504.254L690.017 504.556V504.556L690.377 504.254ZM696.448 511.462L696.088 511.767L696.448 511.462ZM762.371 596.221L762.771 595.973L762.371 596.221ZM786.157 609.38L786.441 609.755L786.042 608.923L786.157 609.38ZM781.701 611.289L781.611 610.827L781.701 611.289ZM697.413 560.905L697.781 560.612L697.413 560.905ZM679.558 522.121L679.111 522.269L679.558 522.121ZM670.495 498.914L670.907 498.686L670.495 498.914ZM655.975 475.204L655.626 475.52L655.975 475.204ZM213.346 475.204L213.695 475.52L213.346 475.204ZM198.826 498.914L198.414 498.686L198.826 498.914ZM188.382 521.85L187.949 521.666L188.382 521.85ZM164.374 568.439L164.006 568.146L164.374 568.439ZM87.6204 611.289L87.7103 610.827H87.7103L87.6204 611.289ZM83.0733 609.854C86.4319 610.694 90.2098 611.081 94.31 609.355C98.4011 607.633 102.742 603.838 107.303 596.469L106.503 595.973C101.999 603.248 97.7907 606.868 93.9447 608.487C90.1079 610.102 86.5607 609.755 83.3017 608.94L83.0733 609.854ZM107.303 596.469C119.525 576.726 142.104 548.499 173.186 511.767L172.467 511.158C141.392 547.883 118.767 576.162 106.503 595.973L107.303 596.469ZM173.186 511.767C175.236 509.344 177.257 506.938 179.257 504.557L178.536 503.951C176.536 506.332 174.516 508.737 172.467 511.158L173.186 511.767ZM179.257 504.557C207.615 470.797 231.689 442.175 274.547 441.301L274.527 440.359C231.178 441.244 206.841 470.254 178.536 503.951L179.257 504.557ZM274.547 441.301C302.539 440.73 382.665 440.844 419.566 441.07L419.572 440.128C382.673 439.903 302.535 439.788 274.527 440.359L274.547 441.301ZM419.098 440.599V440.83H420.04V440.599H419.098ZM419.573 441.301C423.923 441.26 429.007 441.216 434.641 441.173L434.633 440.231C428.999 440.274 423.914 440.318 419.564 440.359L419.573 441.301ZM434.633 441.173C440.267 441.216 445.351 441.26 449.701 441.301L449.71 440.359C445.36 440.318 440.275 440.274 434.641 440.231L434.633 441.173ZM450.176 440.83V440.599H449.234V440.83H450.176ZM449.708 441.07C486.609 440.844 566.735 440.73 594.727 441.301L594.747 440.359C566.739 439.788 486.601 439.903 449.702 440.128L449.708 441.07ZM594.727 441.301C637.585 442.175 661.659 470.797 690.017 504.556L690.738 503.951C662.433 470.254 638.096 441.244 594.747 440.359L594.727 441.301ZM690.017 504.556C692.017 506.938 694.038 509.344 696.088 511.767L696.807 511.158C694.758 508.737 692.738 506.332 690.738 503.951L690.017 504.556ZM696.088 511.767C727.17 548.499 749.749 576.726 761.971 596.469L762.771 595.973C750.507 576.162 727.882 547.883 696.807 511.158L696.088 511.767ZM761.971 596.469C766.549 603.864 770.904 607.66 775.008 609.373C779.12 611.09 782.908 610.685 786.272 609.836L786.042 608.923C782.775 609.747 779.218 610.111 775.37 608.504C771.513 606.894 767.291 603.274 762.771 595.973L761.971 596.469ZM785.873 609.004C784.741 609.86 783.338 610.491 781.611 610.827L781.79 611.752C783.644 611.391 785.183 610.706 786.441 609.755L785.873 609.004ZM781.611 610.827C777.491 611.628 771.698 610.804 764.902 608.597C758.12 606.395 750.396 602.835 742.441 598.227C726.53 589.009 709.745 575.625 697.781 560.612L697.044 561.198C709.096 576.322 725.978 589.778 741.969 599.042C749.966 603.675 757.751 607.266 764.611 609.493C771.455 611.716 777.434 612.599 781.79 611.752L781.611 610.827ZM697.781 560.612C689.23 549.881 684.43 535.367 680.005 521.973L679.111 522.269C683.523 535.625 688.369 550.311 697.044 561.198L697.781 560.612ZM680.005 521.973C677.129 513.267 674.407 505.021 670.907 498.686L670.083 499.142C673.531 505.384 676.226 513.536 679.111 522.269L680.005 521.973ZM670.907 498.686C667.88 493.209 665.158 488.281 662.736 484.22C660.318 480.164 658.181 476.941 656.324 474.889L655.626 475.52C657.415 477.497 659.51 480.65 661.927 484.702C664.339 488.748 667.054 493.66 670.083 499.142L670.907 498.686ZM656.324 474.889C647.365 464.986 625.583 444.597 597.586 444.597V445.539C625.152 445.539 646.691 465.645 655.626 475.52L656.324 474.889ZM597.586 444.597H271.735V445.539H597.586V444.597ZM271.735 444.597C243.738 444.597 221.956 464.986 212.997 474.889L213.695 475.52C222.63 465.645 244.169 445.539 271.735 445.539V444.597ZM212.997 474.889C211.14 476.941 209.003 480.164 206.585 484.22C204.163 488.281 201.441 493.209 198.414 498.686L199.238 499.142C202.267 493.66 204.982 488.748 207.394 484.702C209.81 480.65 211.906 477.497 213.695 475.52L212.997 474.889ZM198.414 498.686C195.255 504.405 191.766 512.649 187.949 521.666L188.816 522.034C192.641 512.997 196.108 504.807 199.238 499.142L198.414 498.686ZM187.949 521.666C181.063 537.934 173.103 556.729 164.006 568.146L164.742 568.733C173.938 557.193 181.949 538.256 188.816 522.034L187.949 521.666ZM164.006 568.146C152.042 583.159 137.144 594.655 123.13 601.984C109.092 609.326 96.0269 612.444 87.7103 610.827L87.5305 611.752C96.1657 613.431 109.47 610.192 123.567 602.819C137.688 595.433 152.691 583.856 164.742 568.733L164.006 568.146ZM87.7103 610.827C85.9946 610.494 84.5988 609.868 83.4703 609.021L82.9047 609.774C84.158 610.715 85.6888 611.394 87.5305 611.752L87.7103 610.827Z" fill="white"/>
</svg>

<svg width="869" height="614" fill="none" xmlns="http://www.w3.org/2000/svg"><path d="M361.652 24.58h-19.71a3.296 3.296 0 0 1 3.263-2.825h13.184a3.296 3.296 0 0 1 3.263 2.825Z" stroke="#fff" stroke-width=".942"/><path d="M314.349 40.588c-39.306 1.725-81.186 4.272-128.08 7.645-20.393 1.467-36.186 6.977-49.195 16.733 3.896-8.071 8.616-14.351 15.718-20.355 25.359-21.439 67.9-35.73 101.443-40.025a2903 2903 0 0 0 2.986-.384h.002c20.397-2.632 33.816-4.364 37.4 4.622l.488 1.225.063.159c4.222 10.614 9.503 13.816 19.175 14.48v15.9Zm235.441-.056c-81.503-3.535-152.058-3.555-233.558-.026V24.688H549.79v15.844Zm180.107 26.473c-14.056-11.159-30.558-17.373-50.144-18.772-46.895-3.351-88.774-5.892-128.08-7.62V24.689c9.671-.664 14.952-3.866 19.175-14.48l.023-.06.528-1.324c3.584-8.986 17.003-7.254 37.4-4.622h.002l.008.001 2.978.383C645.33 8.88 687.871 23.172 713.23 44.611c7.688 6.5 12.586 13.324 16.667 22.394Z" stroke="#fff" stroke-width="2.825"/><path d="M187.93 47.699c-45.205 3.252-67.807 26.37-87.585 71.574C80.568 164.478 3.344 344.355 3.344 463.017c0 118.662 65.923 143.148 73.457 145.032.936.234 1.916.541 2.937.86 7.2 2.254 16.478 5.159 27.2-12.161 12.243-19.777 34.845-48.03 65.923-84.759 31.079-36.729 55.564-69.691 101.711-70.632 28-.572 108.132-.457 145.032-.231v.231c4.349-.042 9.434-.085 15.068-.128 5.634.043 10.718.086 15.068.128v-.231c36.9-.226 117.032-.341 145.032.231 46.146.941 70.632 33.903 101.71 70.632 31.079 36.729 53.681 64.982 65.924 84.759 10.722 17.32 19.999 14.415 27.199 12.161 1.022-.319 2.001-.626 2.937-.86 7.534-1.884 73.458-26.37 73.458-145.032s-77.225-298.539-97.002-343.744c-19.777-45.205-47.088-68.68-87.584-71.574-192.733-13.772-300.759-13.863-493.484 0Z" stroke="#fff" stroke-width="6"/><path d="m83.188 609.397.114-.457-.397.834.282-.377Zm23.715-13.176-.4-.248.4.248Zm65.924-84.759-.36-.304.36.304Zm6.07-7.208.36.303-.36-.303Zm95.64-63.424-.01-.471.01.471Zm145.032-.231h.471v-.468l-.468-.003-.003.471Zm0 .231h-.471v.475l.475-.004-.004-.471Zm15.068-.128.004-.471h-.008l.004.471Zm15.068.128-.004.471.475.004v-.475h-.471Zm0-.231-.003-.471-.468.003v.468h.471Zm145.032.231.01-.471-.01.471Zm95.64 63.424-.36.302.36-.302Zm6.071 7.208-.36.305.36-.305Zm65.923 84.759.4-.248-.4.248Zm23.786 13.159.284.375-.399-.832.115.457Zm-4.456 1.909-.09-.462.09.462Zm-84.288-50.384.368-.293-.368.293Zm-17.855-38.784-.447.148.447-.148Zm-9.063-23.207.412-.228-.412.228Zm-14.52-23.71-.349.316.349-.316Zm-442.629 0 .349.316-.349-.316Zm-14.52 23.71-.412-.228.412.228Zm-10.444 22.936-.433-.184.433.184Zm-24.008 46.589-.368-.293.368.293Zm-76.754 42.85.09-.462-.09.462Zm-4.547-1.435c3.359.84 7.137 1.227 11.237-.499 4.091-1.722 8.432-5.517 12.993-12.886l-.8-.496c-4.504 7.275-8.712 10.895-12.558 12.514-3.837 1.615-7.384 1.268-10.643.453l-.229.914Zm24.23-13.385c12.222-19.743 34.801-47.97 65.883-84.702l-.719-.609c-31.075 36.725-53.7 65.004-65.964 84.815l.8.496Zm65.883-84.702c2.05-2.423 4.071-4.829 6.071-7.21l-.721-.606c-2 2.381-4.02 4.786-6.069 7.207l.719.609Zm6.071-7.21c28.358-33.76 52.432-62.382 95.29-63.256l-.02-.942c-43.349.885-67.686 29.895-95.991 63.592l.721.606Zm95.29-63.256c27.992-.571 108.118-.457 145.019-.231l.006-.942c-36.899-.225-117.037-.34-145.045.231l.02.942Zm144.551-.702v.231h.942v-.231h-.942Zm.475.702c4.35-.041 9.434-.085 15.068-.128l-.008-.942c-5.634.043-10.719.087-15.069.128l.009.942Zm15.06-.128c5.634.043 10.718.087 15.068.128l.009-.942c-4.35-.041-9.435-.085-15.069-.128l-.008.942Zm15.543-.343v-.231h-.942v.231h.942Zm-.468.24c36.901-.226 117.027-.34 145.019.231l.02-.942c-28.008-.571-108.146-.456-145.045-.231l.006.942Zm145.019.231c42.858.874 66.932 29.496 95.29 63.255l.721-.605c-28.305-33.697-52.642-62.707-95.991-63.592l-.02.942Zm95.29 63.255c2 2.382 4.021 4.788 6.071 7.211l.719-.609c-2.049-2.421-4.069-4.826-6.069-7.207l-.721.605Zm6.071 7.211c31.082 36.732 53.661 64.959 65.883 84.702l.8-.496c-12.264-19.811-34.889-48.09-65.964-84.815l-.719.609Zm65.883 84.702c4.578 7.395 8.933 11.191 13.037 12.904 4.112 1.717 7.9 1.312 11.264.463l-.23-.913c-3.267.824-6.824 1.188-10.672-.419-3.857-1.61-8.079-5.23-12.599-12.531l-.8.496Zm23.902 12.535c-1.132.856-2.535 1.487-4.262 1.823l.179.925c1.854-.361 3.393-1.046 4.651-1.997l-.568-.751Zm-4.262 1.823c-4.12.801-9.913-.023-16.709-2.23-6.782-2.202-14.506-5.762-22.461-10.37-15.911-9.218-32.696-22.602-44.66-37.615l-.737.586c12.052 15.124 28.934 28.58 44.925 37.844 7.997 4.633 15.782 8.224 22.642 10.451 6.844 2.223 12.823 3.106 17.179 2.259l-.179-.925Zm-83.83-50.215c-8.551-10.731-13.351-25.245-17.776-38.639l-.894.296c4.412 13.356 9.258 28.042 17.933 38.929l.737-.586Zm-17.776-38.639c-2.876-8.706-5.598-16.952-9.098-23.287l-.824.456c3.448 6.242 6.143 14.394 9.028 23.127l.894-.296Zm-9.098-23.287c-3.027-5.477-5.749-10.405-8.171-14.466-2.418-4.056-4.555-7.279-6.412-9.331l-.698.631c1.789 1.977 3.884 5.13 6.301 9.182 2.412 4.046 5.127 8.958 8.156 14.44l.824-.456Zm-14.583-23.797c-8.959-9.903-30.741-30.292-58.738-30.292v.942c27.566 0 49.105 20.106 58.04 29.981l.698-.631Zm-58.738-30.292H271.735v.942h325.851v-.942Zm-325.851 0c-27.997 0-49.779 20.389-58.738 30.292l.698.631c8.935-9.875 30.474-29.981 58.04-29.981v-.942Zm-58.738 30.292c-1.857 2.052-3.994 5.275-6.412 9.331-2.422 4.061-5.144 8.989-8.171 14.466l.824.456c3.029-5.482 5.744-10.394 8.156-14.44 2.416-4.052 4.512-7.205 6.301-9.182l-.698-.631Zm-14.583 23.797c-3.159 5.719-6.648 13.963-10.465 22.98l.867.368c3.825-9.037 7.292-17.227 10.422-22.892l-.824-.456Zm-10.465 22.98c-6.886 16.268-14.846 35.063-23.943 46.48l.736.587c9.196-11.54 17.207-30.477 24.074-46.699l-.867-.368Zm-23.943 46.48c-11.964 15.013-26.862 26.509-40.876 33.838-14.038 7.342-27.103 10.46-35.42 8.843l-.18.925c8.636 1.679 21.94-1.56 36.037-8.933 14.121-7.386 29.124-18.963 41.175-34.086l-.736-.587ZM87.71 610.827c-1.715-.333-3.111-.959-4.24-1.806l-.565.753c1.253.941 2.784 1.62 4.626 1.978l.18-.925Z" fill="#fff"/></svg>
